X:1
T:[ID 4-22r]
T:[ID 4-22r]
T:Bezeichnung standardisiert: Tantz Tantz
T:Urheber unbekannt Datum in der hier transkribierten schriftlichen Quelle: 1792
C:Urheber unbekannt
C:Datum in der hier transkribierten schriftlichen Quelle: 1792
L:1/8
M:2/4
K:D
V:1 treble 
V:1
 defd | g2 ec | dAFD | defd | g2 ec | d2 d2 :: a3 g .f.f | gg e2 | a3 g .f.f | gg e2 | defd | %11
 g2 ec | dAFD | defd | g2 ec | d2 d2 :| %16

